X:286
T:New Allemond Quick Step. JBut.285, The
Z:Village Music Project 2019 Nigel Rainer
B:John Buttrey MS, poss. Lincolnshire, early 19thC
S:https://buttreymilitarysocialtunes1800.wordpress.com
M:2/4
L:1/8
Q:1/4=100
K:D
(A/G/)|FA A(B/c/)|dAAf|ef g/f/e/d/|cA A(A/G/)|
FA A(B/c/)|dAAf|ed e(d/c/)|d3:|
|:(f/g/)|af d(e/g/)|a/g/f/e/ d(e/f/)|gfed|e/d/c/B/ A(f/g/)|
af d(f/g/)|a/g/f/e/ dA|Bg f/e/d/c/|d3:|

